X:1
T:Tom Billy's
R:jig
M:6/8
L:1/8
K:Amix
|:~a2a ece|edB BAA|eaa Ace|dcB Ace|
|~a2a ece|edB BAF|GBd gfe|fdB Ace:|
|:~g2g ~a2a|bag fed|faf gdB|BAB def|
|~g2g ~a2a|bge gab|age dBe|1 ABA Ace:|2 ABA aed|]
|:~c2c dcd|ece dBe|ABA dBA|ABA aed|
|~c2c dcd|ede gab|age dBe|1 ABA aed:|2 ABA Ace|]